X: 20873
P: The Devil take the Peelers.
M: 2/4
L: 1/16
K: D
|:\
f2d2 (3(f2g2a2) | e2c2 (3(e2f2g2) | g2d2 c2d2 | edcB A2g2 |
f2d2 (3(f2g2a2) | e2c2 (3(e2f2g2) | f2d2 A2c2 | d4 D4 ::\
f2d2g2e2 | a2f2b2g2 | (3(f2g2a2) (3(A2B2c2) | d4 D4 :|


